X: 20103
Q: "Moderate."
M: C
L: 1/16
K: E
(E4 G2A2) B4 (e3f) | (g3a) (gf)(ed) c6 e2 |\
E4 G3A B4 (e3f) | (g3a) (gf)(ed) {d}c6 d2 |\
(e3f) (g^ab2) {g}f4 (e2d2) | (cde2) (c3B) B4 :|
|: B4 |\
(e3df2)f2 (g3ab2)d2 | (c3Bc2)d2 e6 G2 |\
(A3GA2)B2 (c2a)g f2e2 | (d2ef) (fe)(dc) B6 B2 |\
(c2A2c2)e2 (B2G2E2)G2 | (A2c2) (f2ga) {f}d6 B2 |\
(cedc) (BA)(GF) E4 (b2ag) | (f2ga) (gf)(ed) e4 :|


